templates/default/images/icon_coms.svg

<?xml version="1.0" encoding="utf-8"?>
<!-- Generator: Adobe Illustrator 26.3.1, SVG Export Plug-In . SVG Version: 6.00 Build 0)  -->
<svg version="1.1" id="Layer_1" xmlns="http://www.w3.org/2000/svg" xmlns:xlink="http://www.w3.org/1999/xlink" x="0px" y="0px"
	 viewBox="0 0 320 320" style="enable-background:new 0 0 320 320;" xml:space="preserve">
<style type="text/css">
	.st0{clip-path:url(#SVGID_00000090288627906287505570000002602871429277458068_);fill:#52658B;}
	.st1{fill:none;}
</style>
<g>
	<defs>
		<rect id="SVGID_1_" x="60" y="69.4" width="200" height="201.3"/>
	</defs>
	<clipPath id="SVGID_00000028319126150245784700000015940896234939661702_">
		<use xlink:href="#SVGID_1_"  style="overflow:visible;"/>
	</clipPath>
	<path style="clip-path:url(#SVGID_00000028319126150245784700000015940896234939661702_);fill:#52658B;" d="M170,135h-70v15h70V135
		z M100,120h90v-15h-90V120z M100,180h90v-15h-90V180z M245,194.4c0,5.5-4.5,10-10,10H126.9L105,230.6v-26.3H85c-5.5,0-10-4.5-10-10
		v-100c0-5.5,4.5-10,10-10h150c5.5,0,10,4.5,10,10L245,194.4z M260,199.4v-110c0-11-9-20-20-20H80c-11,0-20,9-20,20v110
		c0,11,9,20,20,20h10v51.3l42.8-51.3H240C251,219.4,260,210.4,260,199.4"/>
</g>
<rect class="st1" width="320" height="320"/>
</svg>

<svg id="Layer_1" data-name="Layer 1" xmlns="http://www.w3.org/2000/svg" xmlns:xlink="http://www.w3.org/1999/xlink" viewBox="0 0 200 201.28"><defs><style>.cls-1{fill:none;}.cls-2{clip-path:url(#clip-path);}.cls-3{fill:#52658b;}</style><clipPath id="clip-path" transform="translate(-60 -69.36)"><rect class="cls-1" x="60" y="69.36" width="200" height="201.27"/></clipPath></defs><g class="cls-2"><path class="cls-3" d="M170,135H100v15h70Zm-70-15h90V105H100Zm0,60h90V165H100Zm145,14.36a10,10,0,0,1-10,10H126.93L105,230.64V204.36H85a10,10,0,0,1-10-10v-100a10,10,0,0,1,10-10H235a10,10,0,0,1,10,10Zm15,5v-110a20,20,0,0,0-20-20H80a20,20,0,0,0-20,20v110a20,20,0,0,0,20,20H90v51.28l42.79-51.28H240a20,20,0,0,0,20-20" transform="translate(-60 -69.36)"/></g></svg>
